X:1
T:Title
%%score ( 1 2 3 ) { ( 4 6 ) | 5 }
L:1/8
Q:1/4=105
M:4/4
K:C
V:1 treble nm="Grand Piano, Staff 1"
V:2 treble 
V:3 treble 
V:4 bass nm="Choir Pad, Gladden, 88.88.88"
V:6 bass 
V:5 bass 
V:1
 G2 [Ge]2- [Ge][Fd] [Ec]2 | [GB]2 [Ad]2 [Ac]2 [GB]2 | [FA]2 [EG]2- [EG][FA] [EG]2 | %3
w: By~Thoro~Harris,~before~1911 * * * *|||
 [CE]2 [DF]2 [CE]2 [B,D]2 | G2 [Ee]2- [Ee][Fd] [Gc]2 | [^GB]2 [Gd]2 [Ac]2 [GB]2 | %6
w: |||
 [FA]2 [^Fd]2- [Fd][Fd]ed | cB [DA]2 [^Fd]2 G2 | [EG]2 [FA]2- [FA][EG] [DF]2 | %9
w: |||
 [B,D]2 [EG]2- [EG][DF] [CE]2 | [EG]2 [FA]2 [FB]2 [Fc]2 | ed c4 z2 | F2 [Ec]6- | [Ec]2 z2 z4 |] %14
w: |||||
V:2
 x8 | x8 | x8 | x8 | x8 | x8 | z4 z2 ^F2 | ^F2 z2 z4 | x8 | x8 | x8 | z4 z2 B2- | B2 z2 z4 | x8 |] %14
V:3
 x8 | x8 | x8 | x8 | x8 | x8 | x8 | x8 | x8 | x8 | x8 | A2 G6 | x8 | x8 |] %14
V:4
 G,2 C2- CG, G,2 | C2 C2 C2 C2 | C2 C2- CC C2 | G,2 G,2 G,2 G,2 | G,2 G,2- G,B,[K:treble] C2 | %5
 D2 B,2 C2 C2 | C2 C2[K:bass] z D, C2 | A,2 C2 C2 B,2 | z2 G,6 | z2 G,6 | C2 C2 G,2 G,2 | %11
 C2 E4 D2- | D2 C6- | C2 z2 z4 |] %14
V:5
 z2 C,2- C,D, E,2 | E,2 F,2 F,2 F,2 | F,2 C,2- C,C, C,2 | C,2 C,2 C,2 C,2 | z2 C,2- C,D, E,2 | %5
 E,2 F,2 F,2 F,2 | F,2 .D,4 D,2 | D,2 ^F,2 D,2 G,2 | z2 G,,6 | z2 C,6 | C,2 F,2 D,2 E,2 | %11
 F,2 G,4 G,,2- | G,,2 C,6- | C,2 z2 z4 |] %14
V:6
 x8 | x8 | x8 | x8 | x6[K:treble] x2 | x8 | z4[K:bass] A,2 z2 | x8 | x8 | x8 | x8 | x8 | x8 | x8 |] %14

